X: 1
T: Maggie Cameron
C: Scots Guards, from John Chambers 2006
S: Terry Traub's online collection
M: C
L: 1/8
K: Amix=g
a>f |\
"A"e2 c<A c<e c<A | "A"e>c A>c e2 "D"f2 | "A"e2 c<A  c<e c<A | "G"d>B G>B d2 f2 | "A"e2 c<A c<e c<A | "A"e>c A>c e>A "D"a/g/f |
 "A"e>A c<A  c<e c>A | "G"d>B G>B d2 f2 |] "A"e<a c>a e<a c<a | "A"g/f/e a>c e2 "D"f2 | "A"e<a c<a  e>f g>e | "G"d/c/B g>B d2 f2 |
"A"e<a c>a e<a c<a | "A"g/f/e a>c e2 e/f/g | "A"(3agf g>e (3faA e>c | "G"d/c/B g>B d2 f2 |] "A"e2 c<e A>e c<e | "A"A>e c<e A>e a2 |
"A"e2 c<e  A>e c<e | "G"d/c/B g>B d2 f2 | "A"e2 c<e A>e c<e | "A"A>e c<e A>e a2 | "A"e<a c>a  e<a c>a | "G"d/c/B g>B d2 f2 |]
"A"e<a a>g f>e a>e | "A"c>e a>e c<e "D"f2 | "A"e<a a>g (3faA e>c | "G"d/c/B g>B d2 f2 |
"A"e<a a>g f>e a>e | "A"a>A e>d c<e (3efg | "A"(3agf "G"g>e "D/F#"(3faA "A/E"e>c | "G/D"d/c/B g>B "G"d2 |]
